!!!OTL: GLUECK AUF DER BERGMANN KOMMT
!!!ARE: Europa, Mitteleuropa, Deutschland, Hessen, Wetterau
!!!SCT: E1512A
!!!YEM: Copyright 1995, estate of Helmut Schaffrath.
**kern
*ICvox
*Ivox
!! Mixed meters:  3/4; 4/4
*M4/4
*k[f#]
*G:
{8d
8e
8f#
=1
4.g
8d
8e
8f#
=2
4g
4r}
{8g
8a
=3
4b
4b
4b
8a
8b
=4
*M3/4
4cc
8.a
16a
4a}
=5
{8a
8b
=6
*M4/4
4cc
4ee
4ee
8dd
8cc
=7
*M3/4
4dd
8.b
16b
4b}
=8
{8dd
8cc
=9
*M4/4
2b
2a
=10
*M3/4
8b
8a
8b
8ee
4dd}
=11
{8dd
8cc
=12
*M4/4
2b
2a
=13
2g
8r}
==
!!!AGN: Staende -, Bergmanns - Lied
!!!ONB: ESAC (Essen Associative Code) Database: ERK3
!!!AMT: irregular
!!!AIN: vox
!!!EED: Helmut Schaffrath
!!!EEV: 1.0
*-
